images/social/slideshare.svg

<svg xmlns="http://www.w3.org/2000/svg" width="299.33" height="294.85" viewBox="0 0 299.33 294.85"><defs><style>.a{fill:#fff;}</style></defs><title>slideshare</title><path class="a" d="M21.29,10.28A25.36,25.36,0,0,1,39,2.65q111,0,222,0a25.28,25.28,0,0,1,17.74,7.68c5.72,6,8.12,14.52,7.92,22.67-.1,32.2.15,64.41-.13,96.62,2-1.32,3.91-3.22,6.47-3,3.62-.52,6.84,2.93,6.69,6.45-.38,4.4-2.44,8.41-4.39,12.29-11,20.84-29.49,36.91-50.18,47.68a135.56,135.56,0,0,1,6.16,35c.83,16.31-3.23,33.17-12.95,46.47-8.78,12.21-22.77,20.69-37.82,22.11l-.05.77a76.37,76.37,0,0,1-11.42-.15c-4.19-1.64-8.88-2-12.78-4.41-9.72-5.08-15.26-16-15.62-26.68-.35-11.18,0-22.38-.22-33.57a69.57,69.57,0,0,0,40.33-26.95c1.6-1.53-.07-3.45-1.7-3.92-3.8,1.81-7,4.78-11,6.25a69,69,0,0,1-48.57,1q0,27,0,54.08c0,7.47-1.75,15.18-6.18,21.32a29.36,29.36,0,0,1-17.5,11.45,16,16,0,0,0-4.8,1.48,91.44,91.44,0,0,1-11.47.11l-.07-.77a53.09,53.09,0,0,1-36.19-19.85c-11-13.58-15.44-31.52-14.61-48.75a138.34,138.34,0,0,1,6.15-34.91C32.71,181.34,12.77,163.75,2.4,140.57c-1.62-3.78-3.6-8.94-.14-12.32,3.21-3.21,8.14-1.32,11.14,1.2-.16-32.14,0-64.28-.08-96.41-.12-8.18,2.21-16.75,8-22.76M33.72,23.75c-3.1,3.63-3.28,8.72-3.31,13.27.1,35.76-.15,71.54.13,107.29C45.81,155.79,64.13,163,83,165.94c11.59,1.84,23.37,1.7,35.05,1,7.17-.77,15.21.1,20.68,5.28,7.27,6.85,15.1,13.42,24.48,17.17-.19-5.66-.19-12,3.67-16.55,4.28-5.34,11.66-6.47,18.1-6.1,15.39,1.19,31.09,1,46.12-2.83a116.22,116.22,0,0,0,38.46-17.76q0-55.12,0-110.26c0-4.66-.4-10-4.09-13.34-4-3.42-9.52-3-14.41-3q-103,0-206,0C41,19.65,36.53,20.59,33.72,23.75Z" transform="translate(-0.35 -2.65)"/><path class="a" d="M94.41,82.57c16.4-3.68,34.32,5.59,41.2,20.83a37.33,37.33,0,1,1-70.52,22.69c-2.86-13.9,3.34-29,14.88-37.18A37.45,37.45,0,0,1,94.41,82.57Z" transform="translate(-0.35 -2.65)"/><path class="a" d="M190.37,82.6C206.25,79,223.71,87.47,231,101.94A37,37,0,0,1,232.16,134a37.23,37.23,0,0,1-53.4,17.17c-13-7.59-20.39-23.48-17.64-38.3C163.48,98.07,175.66,85.52,190.37,82.6Z" transform="translate(-0.35 -2.65)"/></svg>

<?xml version="1.0" encoding="UTF-8" ?>
<!DOCTYPE svg PUBLIC "-//W3C//DTD SVG 1.1//EN" "http://www.w3.org/Graphics/SVG/1.1/DTD/svg11.dtd">
<svg width="300pt" height="300pt" viewBox="0 0 300 300" version="1.1" xmlns="http://www.w3.org/2000/svg">
<g>
<path fill="#fff" opacity="1.00" d=" M 21.29 10.28 C 25.81 5.44 32.44 2.84 38.99 2.65 C 112.99 2.67 186.99 2.66 260.98 2.65 C 267.56 2.83 274.20 5.46 278.72 10.33 C 284.44 16.32 286.84 24.85 286.64 33.00 C 286.54 65.20 286.79 97.41 286.51 129.62 C 288.47 128.30 290.42 126.40 292.98 126.59 C 296.60 126.07 299.82 129.52 299.67 133.04 C 299.29 137.44 297.23 141.45 295.28 145.33 C 284.33 166.17 265.79 182.24 245.10 193.01 C 248.78 204.31 250.65 216.16 251.26 228.01 C 252.09 244.32 248.03 261.18 238.31 274.48 C 229.53 286.69 215.54 295.17 200.49 296.59 L 200.44 297.36 C 196.64 297.43 192.81 297.71 189.02 297.21 C 184.83 295.57 180.14 295.25 176.24 292.80 C 166.52 287.72 160.98 276.84 160.62 266.12 C 160.27 254.94 160.66 243.74 160.40 232.55 C 176.48 228.73 191.14 219.08 200.73 205.60 C 202.33 204.07 200.66 202.15 199.03 201.68 C 195.23 203.49 192.06 206.46 188.07 207.93 C 172.73 214.16 155.10 214.47 139.50 208.93 C 139.49 226.95 139.51 244.98 139.50 263.01 C 139.47 270.48 137.75 278.19 133.32 284.33 C 129.18 290.14 122.78 294.26 115.82 295.78 C 114.18 296.14 112.49 296.40 111.02 297.26 C 107.21 297.66 103.37 297.45 99.55 297.37 L 99.48 296.60 C 85.36 295.28 72.07 287.84 63.29 276.75 C 52.33 263.17 47.85 245.23 48.68 228.00 C 49.36 216.18 51.16 204.36 54.83 193.09 C 32.71 181.34 12.77 163.75 2.40 140.57 C 0.78 136.79 -1.20 131.63 2.26 128.25 C 5.47 125.04 10.40 126.93 13.40 129.45 C 13.24 97.31 13.39 65.17 13.32 33.04 C 13.20 24.86 15.53 16.29 21.29 10.28 M 33.72 23.75 C 30.62 27.38 30.44 32.47 30.41 37.02 C 30.51 72.78 30.26 108.56 30.54 144.31 C 45.81 155.79 64.13 163.00 82.96 165.94 C 94.55 167.78 106.33 167.64 118.01 166.98 C 125.18 166.21 133.22 167.08 138.69 172.26 C 145.96 179.11 153.79 185.68 163.17 189.43 C 162.98 183.77 162.98 177.46 166.84 172.88 C 171.12 167.54 178.50 166.41 184.94 166.78 C 200.33 167.97 216.03 167.82 231.06 163.95 C 244.88 160.59 257.86 154.27 269.52 146.19 C 269.54 109.44 269.52 72.69 269.53 35.93 C 269.49 31.27 269.13 25.93 265.44 22.59 C 261.48 19.17 255.92 19.54 251.03 19.56 C 182.37 19.58 113.70 19.56 45.04 19.57 C 40.98 19.65 36.53 20.59 33.72 23.75 Z" />
<path fill="#fff" opacity="1.00" d=" M 94.41 82.57 C 110.81 78.89 128.73 88.16 135.61 103.40 C 140.67 114.03 140.22 127.13 134.37 137.36 C 129.13 146.89 119.49 153.83 108.81 155.84 C 100.95 157.26 92.60 156.34 85.44 152.71 C 74.99 147.67 67.19 137.51 65.09 126.09 C 62.23 112.19 68.43 97.08 79.97 88.91 C 84.26 85.81 89.22 83.62 94.41 82.57 Z" />
<path fill="#fff" opacity="1.00" d=" M 190.37 82.60 C 206.25 78.98 223.71 87.47 231.03 101.94 C 236.23 111.73 236.73 123.90 232.16 134.02 C 227.56 144.81 217.55 153.07 206.12 155.62 C 196.87 157.63 186.87 156.13 178.76 151.19 C 165.79 143.60 158.37 127.71 161.12 112.89 C 163.48 98.07 175.66 85.52 190.37 82.60 Z" />
</g>
</svg>
